X:1
T:Mrs. Crofton
T:Mrs. Crofton
T:Carolan
C:Carolan
L:1/8
M:4/4
K:Emin
V:1 treble 
V:1
"^Quick and Spirited" (egfe) .dz.B z | (cBAc) .Bz.A z | (BG)(AF) (GE)(F^D) | (EF)(GA) B2- B z | %4
 (Be)(^de) [df]z[df] z | z4 [eg]z[eg] z | z4 [fa]z[fa] z | z4 [gb]z[gb] z | %8
 (bc')(a^d') (e'b)(c'b) | (ab)(ga) (fg)(af) | (gb)(ac') (bd'e'c') | b2 Ta>g [Bg]2 z a | %12
 (bc')(ba) (ga)(gf) | (eg)(fe) =d z B z | (cB)(Ac) (B^d)(e>B) | (AG){G} (TF>E) [B,E]2 |] B,E |: %17
 x8 |: B,zA,zG,zF, z | (EF)(GA) [FB]2- [FB] z | (Be)(^df) (eg)(fa) |{ga} b3 a g2 z a | %22
{g} [gb]z[gb] z z4 |{gb} [gbd'] z{gb}[gbd'] z z4 |{df} [dfa] z{df}[dfa] z z4 | (gf)(e>f) d2 z e | %26
 d z [dgb]2 (agfe) | d z [Bb]2 (agfe) | (^d^c)(Bd) (eB)(GB) | (AG) (TF>E) [B,E]2 z :| %30

